projects/ccf-eui/src/assets/icons/organ-icons/organ-icon-small-intestine.svg

<svg width="64" height="64" viewBox="0 0 64 64" fill="currentColor" xmlns="http://www.w3.org/2000/svg">
<g clip-path="url(#clip0_1795_413)">
<path d="M22.8693 12.096C22.8693 13.9093 23.9787 19.5413 27.6693 21.5253C30.5493 23.0827 37.2907 22.9333 39.8507 23.6587C40.9863 24.1671 41.9991 24.9143 42.82 25.8494C43.641 26.7844 44.2508 27.8854 44.608 29.0773C44.7787 30.0587 46.208 28.3733 48.32 28.6933C50.432 29.0133 51.904 32.832 51.2853 35.52C50.7722 37.018 49.779 38.3047 48.4597 39.1803C47.1404 40.056 45.569 40.4716 43.9893 40.3627C42.0054 40.0239 40.2184 38.9594 38.976 37.376C37.1627 34.1333 38.4 32.384 36.2667 33.344C34.1333 34.304 36.992 37.3333 37.8667 39.744C38.1923 40.421 38.2913 41.1848 38.1492 41.9225C38.007 42.6602 37.6312 43.3325 37.0773 43.84C36.448 44.4798 35.6134 44.8776 34.72 44.9634C33.8267 45.0492 32.9316 44.8176 32.192 44.3093C31.2311 43.7021 30.1994 43.2149 29.12 42.8587C26.3893 42.0053 23.1893 42.0267 22.976 39.5307C22.7627 37.0347 24.9813 36.8427 24.9813 36.48C24.9813 36.1173 19.4987 35.584 19.8187 32.7893C20.0747 30.656 24.0853 30.3147 24.0853 30.3147C24.0853 30.3147 27.904 30.3147 27.904 29.8667C27.904 29.4187 19.3707 28.416 18.816 32.4693C18.432 35.4133 22.272 35.7333 22.4853 38.8693C22.6987 42.0053 20.352 43.3067 22.1227 44.1173C24.4693 45.1627 26.688 43.2853 29.056 43.52C31.424 43.7547 33.728 46.08 35.1147 46.0373C37.0987 46.0373 38.1227 42.0907 41.8987 41.5147C43.0331 41.2914 44.2092 41.4383 45.2538 41.9337C46.2985 42.4291 47.1564 43.2469 47.7013 44.2667C48.2024 45.6252 48.2146 47.1159 47.7357 48.4825C47.2568 49.849 46.3168 51.0061 45.0773 51.7547C42.9448 53.2233 40.4548 54.088 37.8709 54.257C35.2871 54.426 32.7057 53.893 30.4 52.7147C31.04 55.7653 28.8 56.4053 27.904 56.448C25.3227 56.6187 24.1493 53.12 22.336 52.1813C19.9492 50.9628 17.2498 50.4944 14.592 50.8373C12.288 51.3493 11.52 48.0213 14.1227 47.4027C17.1535 46.9591 20.2479 47.4191 23.0187 48.7253C24.2749 49.3011 25.3891 50.1459 26.2827 51.2C26.2669 50.5086 26.4849 49.8321 26.9013 49.28C27.2664 48.7646 27.6886 48.2923 28.16 47.872L31.2747 47.0613L35.1147 49.9627L37.248 50.1333C37.248 50.1333 33.984 50.1333 37.44 50.0267C39.6021 50.0875 41.7066 49.325 43.328 47.8933C43.5667 47.6799 43.7199 47.3871 43.7591 47.0694C43.7983 46.7516 43.7209 46.4304 43.5413 46.1653C43.2213 45.7813 42.7947 45.632 41.9413 46.1653C40.5973 46.976 38.848 50.0053 37.2907 50.0693C36.3093 50.0693 29.056 47.7013 27.904 47.936C25.6 48.4907 23.2107 49.4507 20.736 48.2987C19.7877 47.9478 18.9489 47.3527 18.3045 46.5735C17.6602 45.7943 17.2331 44.8586 17.0667 43.8613C16.9387 42.0907 18.1973 40.576 18.112 39.5947C18.0267 38.6133 13.632 36.2667 14.72 31.296C15.808 26.3253 22.6133 24.896 25.3867 25.1947C28.16 25.4933 32.1707 26.5813 32.2773 29.4613C32.384 32.3413 29.6747 33.4507 29.5893 33.728C29.504 34.0053 30.4 34.496 30.6987 35.8613C30.7794 36.8911 30.5569 37.9219 30.0587 38.8267C30.6753 38.9 31.2828 39.0359 31.872 39.232C32.6613 39.552 33.344 40.192 33.4293 40.1493C32.5385 38.3513 31.8653 36.4535 31.424 34.496C31.2966 33.3357 31.5816 32.1675 32.2291 31.1963C32.8766 30.2251 33.8453 29.5127 34.9653 29.184C37.696 28.3733 40.8533 29.76 41.3653 31.3173C41.8773 32.8747 41.8133 34.3253 43.2427 35.584C43.4966 35.7982 43.7911 35.959 44.1085 36.057C44.4259 36.1549 44.7598 36.188 45.0903 36.1541C45.4208 36.1203 45.741 36.0203 46.032 35.86C46.323 35.6997 46.5788 35.4825 46.784 35.2213C47.232 34.56 47.5093 32.384 46.6347 32.832C45.5853 33.3819 44.3703 33.5262 43.2213 33.2373C40.7893 32.5973 40.384 28.5867 38.9547 27.84C37.5253 27.0933 32.2133 27.3707 31.0613 27.1147C29.9093 26.8587 23.1253 25.1093 20.9067 20.3733C19.5048 17.7937 18.7714 14.904 18.7733 11.968C18.496 10.2187 22.848 10.304 22.8693 12.096Z" />
</g>
<defs>
<clipPath id="clip0_1795_413">
<rect width="64" height="64" />
</clipPath>
</defs>
</svg>

<svg xmlns="http://www.w3.org/2000/svg" width="64" height="64" fill="currentColor" viewBox="0 0 64 64"><g clip-path="url(#a)"><path d="M22.87 12.096c0 1.813 1.109 7.445 4.8 9.43 2.88 1.557 9.62 1.407 12.18 2.133a8.66 8.66 0 0 1 4.758 5.418c.17.982 1.6-.704 3.712-.384s3.584 4.139 2.965 6.827a7.19 7.19 0 0 1-7.296 4.843 8.1 8.1 0 0 1-5.013-2.987c-1.813-3.243-.576-4.992-2.71-4.032s.726 3.99 1.6 6.4a3.5 3.5 0 0 1-.789 4.096 3.82 3.82 0 0 1-4.885.47 14 14 0 0 0-3.072-1.451c-2.73-.854-5.93-.832-6.144-3.328-.213-2.496 2.005-2.688 2.005-3.051s-5.482-.896-5.162-3.69c.256-2.134 4.266-2.475 4.266-2.475s3.819 0 3.819-.448-8.533-1.451-9.088 2.602c-.384 2.944 3.456 3.264 3.67 6.4s-2.134 4.438-.363 5.248c2.346 1.046 4.565-.832 6.933-.597s4.672 2.56 6.059 2.517c1.984 0 3.008-3.946 6.784-4.522a5.4 5.4 0 0 1 5.802 2.752 6.23 6.23 0 0 1-2.624 7.488 14.36 14.36 0 0 1-14.677.96c.64 3.05-1.6 3.69-2.496 3.733-2.581.17-3.755-3.328-5.568-4.267a13.3 13.3 0 0 0-7.744-1.344c-2.304.512-3.072-2.816-.47-3.434 3.032-.444 6.126.016 8.897 1.322a9.4 9.4 0 0 1 3.264 2.475 3.07 3.07 0 0 1 .618-1.92 8.4 8.4 0 0 1 1.259-1.408l3.115-.81 3.84 2.9 2.133.171s-3.264 0 .192-.106a8.53 8.53 0 0 0 5.888-2.134 1.32 1.32 0 0 0 .213-1.728c-.32-.384-.746-.533-1.6 0-1.344.811-3.093 3.84-4.65 3.904-.982 0-8.235-2.368-9.387-2.133-2.304.555-4.693 1.515-7.168.363a5.74 5.74 0 0 1-3.67-4.438c-.127-1.77 1.131-3.285 1.046-4.266-.085-.982-4.48-3.328-3.392-8.299 1.088-4.97 7.893-6.4 10.667-6.101 2.773.298 6.784 1.386 6.89 4.266.107 2.88-2.602 3.99-2.688 4.267-.085.277.811.768 1.11 2.133a5.3 5.3 0 0 1-.64 2.966 9 9 0 0 1 1.813.405c.79.32 1.472.96 1.557.917a25.2 25.2 0 0 1-2.005-5.653 4.97 4.97 0 0 1 3.541-5.312c2.731-.81 5.888.576 6.4 2.133.512 1.558.448 3.008 1.878 4.267a2.475 2.475 0 0 0 3.541-.363c.448-.661.725-2.837-.15-2.389a4.82 4.82 0 0 1-3.413.405c-2.432-.64-2.837-4.65-4.266-5.397-1.43-.747-6.742-.47-7.894-.725-1.152-.256-7.936-2.006-10.154-6.742a17.6 17.6 0 0 1-2.134-8.405c-.277-1.75 4.075-1.664 4.096.128"/></g><defs><clipPath id="a"><path d="M0 0h64v64H0z"/></clipPath></defs></svg>
